icons/mobile/24/svg/cursor-arrow-24.svg

<svg width="24" height="24" viewBox="0 0 24 24" fill="none" xmlns="http://www.w3.org/2000/svg">
<path fill-rule="evenodd" clip-rule="evenodd" d="M4.17264 7.89419C3.35269 5.58119 5.58229 3.35159 7.89529 4.17154L17.7703 7.67251C20.0671 8.48669 20.4127 11.5939 18.3465 12.8903L17.6756 13.3102L20.2556 15.8913C21.091 16.7266 21.2592 18.0648 20.5769 19.0602L20.4295 19.2545C20.2604 19.4554 20.0743 19.6603 19.8699 19.8659C19.6611 20.0758 19.453 20.2625 19.2547 20.4294L19.2537 20.4303C18.2447 21.277 16.782 21.1461 15.8914 20.2555L13.3103 17.6745L12.8885 18.3463C11.5909 20.4079 8.48692 20.0629 7.67264 17.7672L4.17264 7.89419ZM7.31033 5.82095C6.38561 5.49335 5.49445 6.38451 5.82205 7.30923L9.32205 17.1823C9.64772 18.1004 10.8894 18.2378 11.408 17.4137L12.4138 15.8151L12.4715 15.734C12.6153 15.5545 12.8251 15.4378 13.0564 15.4118C13.321 15.382 13.585 15.4745 13.7732 15.6627L17.1287 19.0182C17.4181 19.3076 17.8577 19.3169 18.1287 19.0895C18.296 18.9487 18.4639 18.7972 18.6287 18.6315C18.798 18.4613 18.9518 18.2925 19.0906 18.1276L19.1648 18.0192C19.311 17.751 19.2729 17.3832 19.0183 17.1286L15.6629 13.7731C15.4988 13.609 15.406 13.386 15.406 13.154C15.406 12.8528 15.5611 12.5718 15.8162 12.4118L17.4158 11.4079C18.2412 10.8901 18.1044 9.64772 17.1853 9.32193L7.31033 5.82095Z" fill="black"/>
</svg>

<!-- This Source Code Form is subject to the terms of the Mozilla Public
   - License, v. 2.0. If a copy of the MPL was not distributed with this
   - file, You can obtain one at http://mozilla.org/MPL/2.0/. -->
<svg xmlns="http://www.w3.org/2000/svg" width="24" height="24" fill="none" viewBox="0 0 24 24">
    <path fill="#000" fill-rule="evenodd" d="M4.173 7.894c-.82-2.313 1.41-4.542 3.722-3.722l9.875 3.5c2.297.815 2.643 3.922.576 5.218l-.67.42 2.58 2.581c.835.836 1.003 2.174.32 3.17l-.146.194q-.255.301-.56.61a9 9 0 0 1-.615.564l-.001.001c-1.01.847-2.472.716-3.363-.174l-2.58-2.582-.422.672c-1.298 2.062-4.402 1.717-5.216-.579zM7.31 5.821c-.924-.328-1.816.564-1.488 1.488l3.5 9.873c.326.918 1.567 1.056 2.086.232l1.006-1.599.058-.081a.874.874 0 0 1 1.301-.071l3.356 3.355c.29.29.729.299 1 .072a7.7 7.7 0 0 0 .962-.962l.074-.109a.76.76 0 0 0-.147-.89l-3.355-3.356a.877.877 0 0 1 .153-1.361l1.6-1.004c.825-.518.688-1.76-.23-2.086z" clip-rule="evenodd" />
</svg>
